X: 102
T: Błogosław', duszo moja, Panu swojemu,
C: Mikołaj Gomółka
%%abc-version 2.0
%%abcx-abcm2ps-target-version 5.9.1 (29 Sep 2008)
%%abc-creator hum2abc beta
%%abcx-conversion-date 2021/10/04 07:59:10
%%abc-edited-by Leszek Kubiak
%%abcx-initial-encoding-date data 2020-02-18
%%humdrum-veritas 1034962121
%%humdrum-veritas-data 3628456208
%%linebreak <none>
%%barnumbers 0
L: 1/4
M: 3/1
N: Derived from pl-wn--sd-xvi-qu-273--103_gomolka-mikolaj--blogoslaw-duszo-moja-panu-swojemu.krn
%%staves [1 2 3 4]
V: 1
V: 2 clef=tenor
V: 3 clef=tenor
V: 4 clef=bass
K: F
[V:1] D2F2E2D4C2 [|] 
[V:2] A,2F,2G,A,B,4F,2 [|] 
[V:3] F,2D,2E,2F,2>G,2A,2 [|] 
[V:4] D,2D,2C,2B,,4A,,2 [|] 
[V:1] F4G2A2>G2F2 [|] 
[V:2] F,2>E,2D,2E,2F,2D,2 [|] 
[V:3] A,4B,2C2A,2B,3 [|] 
[V:4] D,2>C,2B,,2A,,2D,2B,,4 [|] 
[V:1] F4E2F6 [|] 
[V:2] D2C2>B,2A,6 [|] 
[V:3] A,G,F,G,2F,6 [|] 
[V:4] C,4F,,6 [|] 
[V:1] F2A2G2F4F2 [|] 
[V:2] C2A,2B,CD4D2 [|] 
[V:3] A,2F,2G,2A,2A,2B,A, [|] 
[V:4] F,2F,2E,2D,2>C,2B,,2 [|] 
[V:1] E2>F2G2D2>E2F2 [|] 
[V:2] C2C2D2B,2B,2C2 [|] 
[V:3] G,F,G,A,B,2F,E,F,G,A,2 [|] 
[V:4] C,2>B,,2G,,A,,2<B,,2A,,F,,G,, [|] 
[V:1] E2D4C4C2 [|] 
[V:2] C2B,4A,2F,G,A,B, [|] 
[V:3] A,4G,2A,2A,4 [|] 
[V:4] A,,2B,,4F,,2F,4 [|] 
[V:1] C2F2E2D4C2 [|] 
[V:2] C2A,B,C2F,2>G,2A,B, [|] 
[V:3] G,2F,2G,2D,2>E,2F,G, [|] 
[V:4] E,2D,2C,2B,,4A,,2 [|] 
[V:1] F2>G2A2B2>A2G2 [|] 
[V:2] C2C2DE2<F2ED2 [|] 
[V:3] A,B,C2FE2<D2CB,3 [|] 
[V:4] F,2>E,2D,C,B,,4B,,2 [|] 
[V:1] F4E2F32 [|] 
[V:2] D2C2>B,2A,32 [|] 
[V:3] A,G,F,G,2F,32 [|] 
[V:4] B,,2C,4F,,32 [|] 


